build/img/climat-online.svg

<svg width="148" height="40" viewBox="0 0 148 40" fill="none" xmlns="http://www.w3.org/2000/svg">
<g clip-path="url(#clip0)">
<path d="M46.7231 0.676348C49.3766 0.634453 52.0124 1.11531 54.4798 2.09142C56.9471 3.06753 59.1976 4.51975 61.1027 6.36506C62.937 8.15345 64.405 10.2816 65.4245 12.6306C66.4746 15.0601 67.0038 17.6822 66.978 20.3283C67.0062 22.9745 66.4769 25.5972 65.4245 28.0259C64.4059 30.384 62.9317 32.5184 61.0863 34.3068C59.2409 36.0953 57.0604 37.5027 54.6697 38.4486C52.149 39.5064 49.4372 40.0345 46.7032 40.0001H31.6465V0.676348H46.7231ZM51.7818 31.6261C53.2275 31.039 54.5311 30.1507 55.6058 29.0205C56.6686 27.8624 57.5001 26.5121 58.0555 25.0423C58.6533 23.5225 58.9509 21.9014 58.9318 20.2686C58.951 18.6228 58.6536 16.9887 58.0555 15.4551C57.4932 14.0184 56.6618 12.702 55.6058 11.5764C54.5178 10.462 53.2176 9.57605 51.7818 8.97073C50.1774 8.3081 48.4593 7.96355 46.7231 7.95631H39.6927V32.6207H46.7231C48.4617 32.6607 50.1881 32.3213 51.7818 31.6261Z" fill="#231F20"/>
<path d="M11.9498 0C9.58634 0 7.27597 0.699938 5.31084 2.0113C3.34571 3.32267 1.81408 5.18656 0.909628 7.36728C0.00517767 9.548 -0.231468 11.9476 0.229617 14.2626C0.690701 16.5777 1.82881 18.7042 3.50001 20.3732C5.17122 22.0423 7.30046 23.1789 9.61849 23.6394C11.9365 24.0999 14.3392 23.8636 16.5228 22.9603C18.7063 22.057 20.5726 20.5273 21.8856 18.5647C23.1987 16.6021 23.8995 14.2948 23.8995 11.9344C23.8995 8.76917 22.6406 5.73362 20.3995 3.49549C18.1585 1.25737 15.1191 0 11.9498 0V0ZM11.9498 16.9468C10.9799 16.931 10.0361 16.6304 9.23612 16.0824C8.43618 15.5344 7.81554 14.7632 7.45162 13.8652C7.08769 12.9671 6.99661 11.982 7.18972 11.0326C7.38283 10.0832 7.8516 9.21155 8.53753 8.52651C9.22346 7.84147 10.0962 7.37331 11.0468 7.18044C11.9974 6.98758 12.9839 7.07855 13.8831 7.442C14.7823 7.80545 15.5544 8.4253 16.1031 9.2242C16.6519 10.0231 16.9529 10.9657 16.9687 11.9344C16.9795 12.5956 16.857 13.2522 16.6086 13.8652C16.3602 14.4782 15.9909 15.035 15.5227 15.5026C15.0545 15.9702 14.4969 16.3391 13.8831 16.5872C13.2693 16.8352 12.6118 16.9575 11.9498 16.9468Z" fill="#231F20"/>
<path d="M82.532 9.229V14.2613H80.9785V3.20215H82.532V7.89633H83.6473L87.3716 3.20215H89.2438L84.9817 8.43338L89.4031 14.2613H87.5509L83.6871 9.229H82.532Z" fill="#231F20"/>
<path d="M97.7494 4.55471H93.7662V6.54377C93.5869 11.3374 92.8301 14.3409 90.5596 14.3409H90.1016V12.9287H90.3206C91.7944 12.9287 92.1729 9.78594 92.3123 6.00672V3.20215H99.2631V14.2613H97.6897L97.7494 4.55471Z" fill="#231F20"/>
<path d="M103.803 14.2613H102.25V3.20215H103.803V11.9739L109.758 3.20215H111.312V14.2613H109.758V5.48957L103.803 14.2613Z" fill="#231F20"/>
<path d="M115.794 4.63427V14.2613H114.24V3.20215H116.849L119.677 12.4115L122.506 3.20215H125.115V14.2613H123.561V4.63427L120.494 14.2613H118.861L115.794 4.63427Z" fill="#231F20"/>
<path d="M132.564 3.20215L136.726 14.2613H135.053L134.177 11.9341H129.098L128.242 14.321H126.648L130.751 3.26182L132.564 3.20215ZM133.699 10.5418L131.707 4.77351L129.716 10.5418H133.699Z" fill="#231F20"/>
<path d="M135.709 4.55471V3.20215H144.472V4.55471H140.867V14.2613H139.314V4.55471H135.709Z" fill="#231F20"/>
<path d="M80.7213 25.0819C80.643 24.3548 80.7189 23.6193 80.944 22.9234C81.169 22.2274 81.5383 21.5866 82.0276 21.0425C82.517 20.4985 83.1155 20.0634 83.7843 19.7655C84.4531 19.4677 85.1772 19.3137 85.9095 19.3137C86.6418 19.3137 87.3658 19.4677 88.0346 19.7655C88.7034 20.0634 89.302 20.4985 89.7913 21.0425C90.2807 21.5866 90.6499 22.2274 90.875 22.9234C91.1 23.6193 91.1759 24.3548 91.0977 25.0819C91.1759 25.8091 91.1 26.5445 90.875 27.2405C90.6499 27.9364 90.2807 28.5772 89.7913 29.1213C89.302 29.6654 88.7034 30.1005 88.0346 30.3983C87.3658 30.6962 86.6418 30.8501 85.9095 30.8501C85.1772 30.8501 84.4531 30.6962 83.7843 30.3983C83.1155 30.1005 82.517 29.6654 82.0276 29.1213C81.5383 28.5772 81.169 27.9364 80.944 27.2405C80.7189 26.5445 80.643 25.8091 80.7213 25.0819ZM89.5044 25.0819C89.5044 22.2177 87.931 20.6662 85.8995 20.6662C83.8681 20.6662 82.3146 22.2177 82.3146 25.0819C82.3146 27.9462 83.888 29.4976 85.8995 29.4976C87.9111 29.4976 89.5044 27.9263 89.5044 25.0819Z" fill="#231F20"/>
<path d="M102.27 30.6119H100.717V25.5995H94.9011V30.6119H93.3477V19.5527H94.9011V24.2469H100.717V19.5527H102.27V30.6119Z" fill="#231F20"/>
<path d="M111.849 20.9053H107.866V22.8944C107.687 27.688 106.93 30.6915 104.659 30.6915H104.201V29.3389H104.42C105.894 29.3389 106.272 26.1962 106.412 22.417V19.6323H113.522V30.6915H111.949L111.849 20.9053Z" fill="#231F20"/>
<path d="M120.872 19.5527L125.035 30.6119H123.362L122.485 28.2051H117.506L116.65 30.6119H115.057L119.159 19.5527H120.872ZM121.988 26.8924L119.996 21.1241L118.004 26.8924H121.988Z" fill="#231F20"/>
<path d="M128.122 30.6117H126.568V19.5525H128.122V28.3243L134.097 19.5525H135.65V30.6117H134.097V21.8797L128.122 30.6117ZM131.129 18.9359C129.377 18.9359 128.52 18.1602 128.361 17.106H129.456C129.456 17.6828 130.113 18.0209 131.069 18.0209C132.025 18.0209 132.583 17.6629 132.703 17.106H133.878C133.758 18.1602 132.862 18.9359 131.05 18.9359" fill="#231F20"/>
<path d="M147.499 30.6119H145.945V25.5995H140.13V30.6119H138.576V19.5527H140.13V24.2469H145.945V19.5527H147.499V30.6119Z" fill="#231F20"/>
<path d="M148 35H81V40H148V35Z" fill="url(#paint0_linear)"/>
</g>
<defs>
<linearGradient id="paint0_linear" x1="80.2475" y1="34.7346" x2="147.247" y2="34.7346" gradientUnits="userSpaceOnUse">
<stop stop-color="#FEDECB"/>
<stop offset="0.19" stop-color="#FEDECB"/>
<stop offset="0.29" stop-color="#F7DDCB"/>
<stop offset="0.43" stop-color="#E3DAC9"/>
<stop offset="0.59" stop-color="#C3D6C7"/>
<stop offset="0.78" stop-color="#96CFC4"/>
<stop offset="0.89" stop-color="#79CBC2"/>
<stop offset="1" stop-color="#79CBC2"/>
</linearGradient>
<clipPath id="clip0">
<rect width="148" height="40" fill="white"/>
</clipPath>
</defs>
</svg>

<svg width="148" height="40" viewBox="0 0 148 40" fill="none" xmlns="http://www.w3.org/2000/svg"><g clip-path="url(#clip0)"><path d="M46.723.676a20.219 20.219 0 0114.38 5.69 19.711 19.711 0 014.321 6.265 18.936 18.936 0 011.554 7.697 18.855 18.855 0 01-1.553 7.698A19.533 19.533 0 0154.67 38.449 19.94 19.94 0 0146.703 40H31.646V.676h15.077zm5.059 30.95a10.975 10.975 0 003.824-2.606 12.33 12.33 0 002.45-3.978c.597-1.52.895-3.14.876-4.773a12.825 12.825 0 00-.877-4.814 12.131 12.131 0 00-2.45-3.879 11.692 11.692 0 00-3.823-2.605 13.398 13.398 0 00-5.059-1.015h-7.03v24.665h7.03c1.739.04 3.465-.3 5.059-.995zM11.95 0C9.586 0 7.276.7 5.31 2.011a11.938 11.938 0 00-4.4 5.356A11.92 11.92 0 003.5 20.373a11.954 11.954 0 0013.023 2.587 11.946 11.946 0 005.363-4.395A11.923 11.923 0 0020.4 3.495 11.957 11.957 0 0011.95 0zm0 16.947a4.944 4.944 0 01-4.498-3.082 4.927 4.927 0 011.086-5.338 4.941 4.941 0 018.43 3.407 4.927 4.927 0 01-3.085 4.653 4.948 4.948 0 01-1.933.36zm70.582-7.718v5.032h-1.553V3.202h1.553v4.694h1.115l3.725-4.694h1.872l-4.262 5.231 4.421 5.828h-1.852L83.687 9.23h-1.155zM97.75 4.555h-3.984v1.989c-.18 4.793-.936 7.797-3.206 7.797h-.458v-1.412h.219c1.473 0 1.852-3.143 1.991-6.922V3.202h6.951v11.06H97.69l.06-9.707zm6.053 9.706h-1.553V3.202h1.553v8.772l5.955-8.772h1.554v11.06h-1.554V5.49l-5.955 8.771zm11.991-9.627v9.627h-1.554V3.202h2.609l2.828 9.21 2.829-9.21h2.609v11.06h-1.554V4.633l-3.067 9.627h-1.633l-3.067-9.627zm16.77-1.432l4.162 11.06h-1.673l-.876-2.328h-5.079l-.856 2.387h-1.594l4.103-11.06 1.813-.059zm1.135 7.34l-1.992-5.768-1.991 5.768h3.983zm2.01-5.987V3.202h8.763v1.353h-3.605v9.706h-1.553V4.555h-3.605zM80.721 25.082a5.203 5.203 0 011.307-4.04 5.22 5.22 0 019.07 4.04 5.207 5.207 0 01-3.063 5.316 5.223 5.223 0 01-7.091-3.157 5.204 5.204 0 01-.223-2.16zm8.783 0c0-2.864-1.573-4.416-3.605-4.416-2.03 0-3.584 1.552-3.584 4.416 0 2.864 1.573 4.416 3.585 4.416 2.011 0 3.604-1.572 3.604-4.416zm12.766 5.53h-1.553V25.6h-5.816v5.012h-1.553v-11.06H94.9v4.695h5.816v-4.694h1.553v11.059zm9.579-9.707h-3.983v1.99c-.179 4.793-.936 7.797-3.207 7.797h-.458v-1.353h.219c1.474 0 1.852-3.143 1.992-6.922v-2.785h7.11v11.06h-1.573l-.1-9.787zm9.023-1.352l4.163 11.059h-1.673l-.877-2.407h-4.979l-.856 2.407h-1.593l4.102-11.06h1.713zm1.116 7.34l-1.992-5.769-1.992 5.768h3.984zm6.134 3.719h-1.554v-11.06h1.554v8.772l5.975-8.772h1.553v11.06h-1.553V21.88l-5.975 8.732zm3.007-11.676c-1.752 0-2.609-.776-2.768-1.83h1.095c0 .577.657.915 1.613.915s1.514-.358 1.634-.915h1.175c-.12 1.054-1.016 1.83-2.828 1.83m16.449 11.676h-1.554V25.6h-5.815v5.012h-1.554v-11.06h1.554v4.695h5.815v-4.694h1.554v11.059z" fill="#231F20"/><path d="M148 35H81v5h67v-5z" fill="url(#paint0_linear)"/></g><defs><linearGradient id="paint0_linear" x1="80.248" y1="34.735" x2="147.247" y2="34.735" gradientUnits="userSpaceOnUse"><stop stop-color="#FEDECB"/><stop offset=".19" stop-color="#FEDECB"/><stop offset=".29" stop-color="#F7DDCB"/><stop offset=".43" stop-color="#E3DAC9"/><stop offset=".59" stop-color="#C3D6C7"/><stop offset=".78" stop-color="#96CFC4"/><stop offset=".89" stop-color="#79CBC2"/><stop offset="1" stop-color="#79CBC2"/></linearGradient><clipPath id="clip0"><path fill="#fff" d="M0 0h148v40H0z"/></clipPath></defs></svg>
